assets/sonr-icons/safe.svg

<svg xmlns="http://www.w3.org/2000/svg" width="24" height="24" fill="none"><path fill="currentColor" d="M3.327 4.638a3 3 0 0 1 1.311-1.311C5.28 3 6.12 3 7.8 3h8.4c1.68 0 2.52 0 3.162.327a3 3 0 0 1 1.311 1.311C21 5.28 21 6.12 21 7.8v6.4c0 1.68 0 2.52-.327 3.162a3 3 0 0 1-1.311 1.311c-.356.181-.774.263-1.362.299v1.029a1 1 0 0 1-2 0v-1H8v1a1 1 0 0 1-2 0v-1.029c-.588-.036-1.006-.117-1.362-.299a3 3 0 0 1-1.311-1.311C3 16.72 3 15.88 3 14.2V7.8c0-1.68 0-2.52.327-3.162M13 11a1 1 0 1 1-2 0 1 1 0 0 1 2 0m-3.829 1A3 3 0 0 0 11 13.829V15a1 1 0 0 0 2 0v-1.171A3 3 0 0 0 14.829 12H16a1 1 0 0 0 0-2h-1.171A3 3 0 0 0 13 8.171V7a1 1 0 0 0-2 0v1.171A3 3 0 0 0 9.171 10H8a1 1 0 0 0 0 2z"/></svg>

<svg xmlns="http://www.w3.org/2000/svg" width="24" height="24" fill="none" viewBox="0 0 24 24"><path fill="#000" d="M3.327 4.638C3.614 4.073 4.073 3.614 4.638 3.327C5.28 3 6.12 3 7.8 3H16.2C17.88 3 18.72 3 19.362 3.327C19.927 3.614 20.386 4.073 20.673 4.638C21 5.28 21 6.12 21 7.8V14.2C21 15.88 21 16.72 20.673 17.362C20.386 17.927 19.927 18.386 19.362 18.673C19.006 18.854 18.588 18.936 18 18.972V20.001C18 20.553 17.552 21.001 17 21.001C16.448 21.001 16 20.553 16 20.001V19.001H8V20.001C8 20.553 7.552 21.001 7 21.001C6.448 21.001 6 20.553 6 20.001V18.972C5.412 18.936 4.994 18.855 4.638 18.673C4.073 18.386 3.614 17.927 3.327 17.362C3 16.72 3 15.88 3 14.2V7.8C3 6.12 3 5.28 3.327 4.638ZM13 11C13 11.552 12.552 12 12 12C11.448 12 11 11.552 11 11C11 10.448 11.448 10 12 10C12.552 10 13 10.448 13 11ZM9.171 12C9.473 12.853 10.148 13.528 11 13.829V15C11 15.552 11.448 16 12 16C12.552 16 13 15.552 13 15V13.829C13.853 13.527 14.528 12.852 14.829 12H16C16.552 12 17 11.552 17 11C17 10.448 16.552 10 16 10H14.829C14.527 9.147 13.852 8.472 13 8.171V7C13 6.448 12.552 6 12 6C11.448 6 11 6.448 11 7V8.171C10.147 8.472 9.472 9.148 9.171 10H8C7.448 10 7 10.448 7 11C7 11.552 7.448 12 8 12H9.171Z"/></svg>
